X:67
T:Mountain Hornpipe
M:4/4
L:1/8
S:Grant Lamb - a manitoba fiddler
K:G
(DE/2F/2)| G2 gd edBA| G2 gd edBG| DGBG DGBG|DGBd cBAB| | G2 gd edBA| 
G2 gd edBd| gfgd ecAF | G2 GF G :||:
z | B3 c d2 d2 | cBcd e4 | A2>B/2 cBcA | Ggfa g2 ge | dBdg eceg | 
fdfa gfge | dBdg ecAF | G2 GF G2 :|
